X:1
T:Saint Patrick's Day
S:Matt Cranitch's Irish Fiddle Book
S:Matt Cranitch: The Irish Fiddle Book, p. 164, No. 95
M:6/8
K:G
D \
| GAG GAB | ded dBG | AGA BGD | EFE E2D \
| GAG GAB | ded dBG | AGA BGD | E2F G2 :|
B \
| def gag | fed edB | def gag | fed e2d | def gag | fed efg |
| dBG GAB | ded dBG | AGA BGD | EFE E2D | GAG GBd | gfe dBG | AGA BGD | E2F G2 :|
